X:1
T:Title
%%score ( 1 2 ) { 3 | 4 }
L:1/8
M:3/4
K:D
V:1 treble nm="Grand Piano, Staff 1"
V:2 treble 
V:3 bass nm="Choir Pad, Antwerp, LM"
V:4 bass 
V:1
 [DA]2 [DA]2 [EA]2 | [Dd]4 D2 | D2- [DF]2 [CG]2 | [DF]6 | E2 [DE]2 [CE]2 | [DF]2 [E^G]2 [EA]2 | %6
w: By~William~Smallwood~(1831\-1897) * *||||||
 [FB]2 [Ec]2 B-[DB] | [CA]6 | [DA]2 [DB]2 [D=c]2 | [DB]4 [^DA]2 | [EG]4 [^DF]2 | [EG]6 | %12
w: ||||||
 [EA]2 [FA]2 [EA]2 | d2 G2 [DF]2 | E2 F2 [CE]2 | D6- | D2 z2 z2 |] %17
w: |||||
V:2
 x6 | x6 | E2 z2 z2 | x6 | x6 | x6 | z2 z2 .E2 | x6 | x6 | x6 | x6 | x6 | x6 | D4 z2 | D4 z2 | x6 | %16
 x6 |] %17
V:3
 F,2 F,2 A,2 | F,4 A,2 | B,2 A,2 A,2 | A,6 | A,2 ^G,2 A,2 | A,2 B,2 A,2 | A,4 ^G,2 | A,6 | %8
 F,2 G,2 A,2 | G,4 B,2 | B,4 B,2 | B,6 | A,2 A,2 A,2 | F,2 G,2 A,2 | B,2 A,2 A,G, | F,6- | %16
 F,2 z2 z2 |] %17
V:4
 D,2 D,2 C,2 | B,,4 F,2 | G,2 z2 A,,2 | D,6 | C,2 B,,2 A,,2 | D,4 B,,2 | D,2 E,2 E,2 | A,,6 | %8
 D,2 D,2 D,2 | z2 z2 F,2 | E,4 B,,2 | E,6 | C,2 D,2 C,2 | B,,4 A,,2 | G,,2 A,,2 A,,2 | D,6- | %16
 D,2 z2 z2 |] %17

